gamecom/_inc/system.svg

<svg xmlns="http://www.w3.org/2000/svg"><g fill="#fff"><path d="m5.128 147.789v-8.262l21.689-.31c17.969-.206 21.893-.62 22.72-1.859.826-1.343-.516-1.653-9.605-2.169-6.3-.413-12.393-1.446-15.181-2.479-10.328-4.131-18.073-11.36-22.514-20.964-2.272-5.061-2.479-6.507-2.066-17.041.31-9.192.826-12.393 2.582-15.801 3.718-7.023 11.257-14.459 18.073-17.868l6.3-3.201h21.068 21.069l-.31 41.104c-.31 45.029-.207 43.996-6.919 51.122-5.267 5.68-6.301 5.886-32.636 5.886h-24.27zm46.475-51.742v-21.688h-8.056c-10.534 0-15.905 2.582-20.346 9.709-6.815 11.153-2.169 28.09 8.779 32.532 1.446.516 6.403 1.032 11.154 1.032l8.469.103z"/><path d="m322.806 139.836c-.929-.825-1.653-1.962-1.653-2.478 0-1.24 2.996-4.132 4.235-4.132.516 0 .207-1.445-.723-3.304-3.201-6.3.104-13.84 7.643-17.041 1.962-.826 4.338-1.135 5.37-.826 1.032.31 3.718-.309 5.99-1.446 6.713-3.408 12.29-3.305 13.22.31.722 2.892-1.447 7.332-5.164 10.844-1.446 1.446-2.685 3.408-2.685 4.44 0 6.198-6.507 11.465-13.53 11.052-3.201-.31-4.338.103-5.68 1.962-1.859 2.685-4.751 2.892-7.023.619zm30.363-26.955c0-1.653-.309-1.653-5.267-.206l-3.924 1.239 2.272 2.892 2.272 2.892 2.272-2.789c1.343-1.549 2.375-3.408 2.375-4.028z"/><path d="m93.636 133.847c-10.121-3.615-15.698-11.98-14.975-22.411.62-8.056 4.441-13.736 12.083-17.661 5.267-2.789 6.094-2.892 20.863-2.892h15.388v-5.783c0-10.121 1.032-9.708-23.754-9.708h-21.688v-8.778-8.779h23.753c26.13 0 26.852.103 32.635 6.403 6.611 6.919 6.611 7.022 6.611 40.588v30.466h-23.445c-16.936-.103-24.682-.516-27.471-1.445zm33.359-20.243v-6.196h-14.872c-12.393 0-15.079.309-16.215 1.652-2.272 2.686-2.169 6.403.103 8.675 1.859 1.859 3.409 2.066 16.525 2.066h14.459z"/><path d="m156.945 96.564v-38.729h39.761c32.842 0 40.381.31 42.757 1.446 4.233 2.272 9.087 8.262 10.327 12.703.723 2.375 1.136 16.111 1.136 33.668v29.64h-9.295-9.295v-29.95c0-23.134-.309-29.95-1.24-30.157-.722-.103-5.37-.206-10.327-.206l-9.088-.103v30.259 30.157h-8.779-8.778v-30.466-30.467h-9.811-9.811v30.467 30.466h-8.779-8.778z"/><path d="m286.246 132.917c-17.867-6.3-27.988-21.171-26.851-39.452.929-13.735 9.294-26.335 21.79-32.532 6.094-2.995 6.507-3.098 22.102-3.098h15.802v8.262 8.262h-11.155c-6.093 0-12.703.413-14.562 1.033-3.924 1.136-8.778 5.267-10.74 9.295l-1.343 2.582h18.693 18.59l.31 8.571.31 8.47h-19.313-19.21l2.582 4.44c4.132 7.126 8.986 8.985 23.651 8.985h12.187v8.779 8.778h-13.117c-10.947-.103-14.355-.516-19.726-2.375z"/><path d="m384.05 132.917c-27.678-9.399-35.735-42.653-15.493-64.031 2.893-2.996 7.436-6.61 10.121-8.056 4.545-2.272 6.301-2.479 21.792-2.789l16.731-.309v8.261 8.366h-11.154c-12.91 0-17.04.93-21.172 4.855-5.06 4.957-6.3 8.261-6.3 17.453 0 9.398 2.066 13.942 7.953 18.177 2.995 2.169 4.75 2.375 17.04 2.685l13.633.413v8.675 8.675h-13.116c-10.948 0-14.356-.413-20.035-2.375z"/><path d="m450.146 133.433c-15.698-5.267-26.129-18.176-27.472-34.081-1.343-16.111 7.953-32.119 22.824-39.038 4.441-2.066 6.92-2.479 15.388-2.479 8.779 0 10.948.31 15.802 2.685 15.492 7.333 24.683 24.993 21.997 41.93-3.614 22.411-27.781 37.799-48.539 30.983zm16.937-17.144c12.084-5.061 15.079-26.438 5.164-36.353-8.985-9.089-22.308-5.37-27.678 7.539-6.816 16.214 7.849 35.114 22.514 28.814z"/><path d="m507.051 96.564v-38.729h40.381c39.246 0 40.588.103 43.892 2.169 1.963 1.135 4.648 4.131 6.094 6.507l2.582 4.44v32.119 32.222h-8.262-8.263v-29.331c0-22.411-.309-29.639-1.239-30.259-.722-.413-5.37-.826-10.327-.826h-9.089v30.259 30.157h-9.295-9.397l.309-30.466.31-30.467h-9.811-9.811l.309 30.467.31 30.466h-9.398-9.295z"/><path d="m51.603 38.006c0-15.079-.103-15.595-1.859-13.942-2.479 2.272-5.68 2.168-7.746-.103-2.272-2.479-2.272-5.164 0-7.643 1.549-1.756 1.549-1.859 0-1.859-1.446 0-1.756-1.24-1.756-7.229v-7.23h20.139 20.139v7.23c0 6.506-.207 7.229-2.066 7.229-2.065 0-2.065 0 .103 2.169 1.447 1.445 1.86 2.788 1.447 4.337-1.55 5.06-7.54 6.507-10.225 2.582-1.549-2.168-1.652-1.033-1.652 13.943v16.213h-8.262-8.262zm18.486-21.688c1.24-1.549 1.136-1.859-.31-1.859-1.033 0-1.652.826-1.652 2.272 0 1.239.103 1.962.309 1.755.104-.206.93-1.238 1.653-2.168zm-18.486-.31c0-.826-.724-1.549-1.55-1.549-1.343 0-1.446.31-.309 1.549 1.653 1.859 1.859 1.859 1.859 0z"/><path d="m83.618 26.852v-26.852h8.263 8.261l-.206 26.646-.31 26.541-7.952.31-8.056.311z"/><path d="m117.699 52.361c-5.06-1.652-12.702-9.604-14.252-14.768-1.858-6.404-1.549-17.041.724-22.308 2.272-5.37 7.126-10.431 12.599-13.219 3.408-1.859 6.093-2.066 21.068-2.066h17.041v7.23 7.229h-13.839c-12.6 0-14.045.207-17.247 2.376-4.028 2.685-6.094 6.196-6.094 10.534 0 7.332 5.784 11.877 15.079 11.877 5.06 0 5.267-.104 4.751-2.582-.413-2.376-.93-2.582-5.99-2.582h-5.578v-7.746-7.746h14.459 14.459v17.557 17.556l-16.731-.103c-9.294-.103-18.486-.619-20.449-1.239z"/><path d="m163.038 51.536c-2.066-1.24-4.442-3.512-5.371-5.061-3.201-5.268-1.756-14.769 2.789-18.487 1.446-1.136 1.343-1.652-.62-4.338-1.549-1.961-2.375-4.957-2.685-9.191-.413-6.094-.413-6.3 3.718-10.327l4.131-4.132h16.628 16.627v7.23 7.229h-10.844c-9.089 0-11.05.31-11.567 1.652-1.033 2.686 1.756 3.512 12.393 3.512h10.018v7.746 7.745h-11.463c-10.328 0-11.361.207-11.052 1.859.31 1.549 2.273 1.755 21.792 2.066l21.379.207v7.229 7.228h-26.026c-24.58 0-26.335-.206-29.847-2.167z"/><path d="m227.998 44.203-.309-9.605-3.305-.31-3.409-.309v-7.747-7.642h5.164c4.441 0 5.164-.31 5.164-2.065 0-1.859-.723-2.066-6.196-2.066h-6.196v11.36 11.361h-8.779-8.778v-18.59-18.59h17.66c16.007 0 18.073.207 21.481 2.169 5.06 2.892 7.539 6.506 8.158 11.877.621 5.68-.206 8.778-3.304 12.497-2.169 2.582-2.272 3.201-1.032 4.957.825 1.032 1.445 3.201 1.445 4.854v2.892h36.973c42.447 0 41.827.103 39.452-7.23-1.653-4.957-.826-7.023 3.511-9.089 2.169-1.032 3.512-1.135 6.3-.206 5.061 1.653 8.055 6.404 8.572 13.322.516 7.023-2.169 11.671-8.572 15.286-4.131 2.374-4.235 2.374-53.911 2.374h-49.779z"/><path d="m343.978 51.018c-1.239-1.548-2.169-3.614-2.169-4.749 0-2.479 4.545-7.023 7.022-7.023 3.409 0 7.436 3.923 7.436 7.332 0 6.713-8.262 9.604-12.289 4.44z"/></g></svg>

<?xml version="1.0" encoding="utf-8"?>
<svg xmlns="http://www.w3.org/2000/svg">
  <path d="M 5.128 147.789 L 5.128 139.527 L 26.817 139.217 C 44.786 139.011 48.71 138.597 49.537 137.358 C 50.363 136.015 49.021 135.705 39.932 135.189 C 33.632 134.776 27.539 133.743 24.751 132.71 C 14.423 128.579 6.678 121.35 2.237 111.746 C -0.035 106.685 -0.242 105.239 0.171 94.705 C 0.481 85.513 0.997 82.312 2.753 78.904 C 6.471 71.881 14.01 64.445 20.826 61.036 L 27.126 57.835 L 48.194 57.835 L 69.263 57.835 L 68.953 98.939 C 68.643 143.968 68.746 142.935 62.034 150.061 C 56.767 155.741 55.733 155.947 29.398 155.947 L 5.128 155.947 L 5.128 147.789 Z M 51.603 96.047 L 51.603 74.359 L 43.547 74.359 C 33.013 74.359 27.642 76.941 23.201 84.068 C 16.386 95.221 21.032 112.158 31.98 116.6 C 33.426 117.116 38.383 117.632 43.134 117.632 L 51.603 117.735 L 51.603 96.047 Z" style="fill: rgb(255, 255, 255);"/>
  <path d="M 322.806 139.836 C 321.877 139.011 321.153 137.874 321.153 137.358 C 321.153 136.118 324.149 133.226 325.388 133.226 C 325.904 133.226 325.595 131.781 324.665 129.922 C 321.464 123.622 324.769 116.082 332.308 112.881 C 334.27 112.055 336.646 111.746 337.678 112.055 C 338.71 112.365 341.396 111.746 343.668 110.609 C 350.381 107.201 355.958 107.304 356.888 110.919 C 357.61 113.811 355.441 118.251 351.724 121.763 C 350.278 123.209 349.039 125.171 349.039 126.203 C 349.039 132.401 342.532 137.668 335.509 137.255 C 332.308 136.945 331.171 137.358 329.829 139.217 C 327.97 141.902 325.078 142.109 322.806 139.836 Z M 353.169 112.881 C 353.169 111.228 352.86 111.228 347.902 112.675 L 343.978 113.914 L 346.25 116.806 L 348.522 119.698 L 350.794 116.909 C 352.137 115.36 353.169 113.501 353.169 112.881 Z" style="fill: rgb(255, 255, 255);"/>
  <path d="M 93.636 133.847 C 83.515 130.232 77.938 121.867 78.661 111.436 C 79.281 103.38 83.102 97.7 90.744 93.775 C 96.011 90.986 96.838 90.883 111.607 90.883 L 126.995 90.883 L 126.995 85.1 C 126.995 74.979 128.027 75.392 103.241 75.392 L 81.553 75.392 L 81.553 66.614 L 81.553 57.835 L 105.306 57.835 C 131.436 57.835 132.158 57.938 137.941 64.238 C 144.552 71.157 144.552 71.26 144.552 104.826 L 144.552 135.292 L 121.107 135.292 C 104.171 135.189 96.425 134.776 93.636 133.847 Z M 126.995 113.604 L 126.995 107.408 L 112.123 107.408 C 99.73 107.408 97.044 107.717 95.908 109.06 C 93.636 111.746 93.739 115.463 96.011 117.735 C 97.87 119.594 99.42 119.801 112.536 119.801 L 126.995 119.801 L 126.995 113.604 Z" style="fill: rgb(255, 255, 255);"/>
  <path d="M 156.945 96.564 L 156.945 57.835 L 196.706 57.835 C 229.548 57.835 237.087 58.145 239.463 59.281 C 243.696 61.553 248.55 67.543 249.79 71.984 C 250.513 74.359 250.926 88.095 250.926 105.652 L 250.926 135.292 L 241.631 135.292 L 232.336 135.292 L 232.336 105.342 C 232.336 82.208 232.027 75.392 231.096 75.185 C 230.374 75.082 225.726 74.979 220.769 74.979 L 211.681 74.876 L 211.681 105.135 L 211.681 135.292 L 202.902 135.292 L 194.124 135.292 L 194.124 104.826 L 194.124 74.359 L 184.313 74.359 L 174.502 74.359 L 174.502 104.826 L 174.502 135.292 L 165.723 135.292 L 156.945 135.292 L 156.945 96.564 Z" style="fill: rgb(255, 255, 255);"/>
  <path d="M 286.246 132.917 C 268.379 126.617 258.258 111.746 259.395 93.465 C 260.324 79.73 268.689 67.13 281.185 60.933 C 287.279 57.938 287.692 57.835 303.287 57.835 L 319.089 57.835 L 319.089 66.097 L 319.089 74.359 L 307.934 74.359 C 301.841 74.359 295.231 74.772 293.372 75.392 C 289.448 76.528 284.594 80.659 282.632 84.687 L 281.289 87.269 L 299.982 87.269 L 318.572 87.269 L 318.882 95.84 L 319.192 104.31 L 299.879 104.31 L 280.669 104.31 L 283.251 108.75 C 287.383 115.876 292.237 117.735 306.902 117.735 L 319.089 117.735 L 319.089 126.514 L 319.089 135.292 L 305.972 135.292 C 295.025 135.189 291.617 134.776 286.246 132.917 Z" style="fill: rgb(255, 255, 255);"/>
  <path d="M 384.05 132.917 C 356.372 123.518 348.315 90.264 368.557 68.886 C 371.45 65.89 375.993 62.276 378.678 60.83 C 383.223 58.558 384.979 58.351 400.47 58.041 L 417.201 57.732 L 417.201 65.993 L 417.201 74.359 L 406.047 74.359 C 393.137 74.359 389.007 75.289 384.875 79.214 C 379.815 84.171 378.575 87.475 378.575 96.667 C 378.575 106.065 380.641 110.609 386.528 114.844 C 389.523 117.013 391.278 117.219 403.568 117.529 L 417.201 117.942 L 417.201 126.617 L 417.201 135.292 L 404.085 135.292 C 393.137 135.292 389.729 134.879 384.05 132.917 Z" style="fill: rgb(255, 255, 255);"/>
  <path d="M 450.146 133.433 C 434.448 128.166 424.017 115.257 422.674 99.352 C 421.331 83.241 430.627 67.233 445.498 60.314 C 449.939 58.248 452.418 57.835 460.886 57.835 C 469.665 57.835 471.834 58.145 476.688 60.52 C 492.18 67.853 501.371 85.513 498.685 102.45 C 495.071 124.861 470.904 140.249 450.146 133.433 Z M 467.083 116.289 C 479.167 111.228 482.162 89.851 472.247 79.936 C 463.262 70.847 449.939 74.566 444.569 87.475 C 437.753 103.689 452.418 122.589 467.083 116.289 Z" style="fill: rgb(255, 255, 255);"/>
  <path d="M 507.051 96.564 L 507.051 57.835 L 547.432 57.835 C 586.678 57.835 588.02 57.938 591.324 60.004 C 593.287 61.139 595.972 64.135 597.418 66.511 L 600 70.951 L 600 103.07 L 600 135.292 L 591.738 135.292 L 583.475 135.292 L 583.475 105.961 C 583.475 83.55 583.166 76.322 582.236 75.702 C 581.514 75.289 576.866 74.876 571.909 74.876 L 562.82 74.876 L 562.82 105.135 L 562.82 135.292 L 553.525 135.292 L 544.128 135.292 L 544.437 104.826 L 544.747 74.359 L 534.936 74.359 L 525.125 74.359 L 525.434 104.826 L 525.744 135.292 L 516.346 135.292 L 507.051 135.292 L 507.051 96.564 Z" style="fill: rgb(255, 255, 255);"/>
  <path d="M 51.603 38.006 C 51.603 22.927 51.5 22.411 49.744 24.064 C 47.265 26.336 44.064 26.232 41.998 23.961 C 39.726 21.482 39.726 18.797 41.998 16.318 C 43.547 14.562 43.547 14.459 41.998 14.459 C 40.552 14.459 40.242 13.219 40.242 7.23 L 40.242 0 L 60.381 0 L 80.52 0 L 80.52 7.23 C 80.52 13.736 80.313 14.459 78.454 14.459 C 76.389 14.459 76.389 14.459 78.557 16.628 C 80.004 18.073 80.417 19.416 80.004 20.965 C 78.454 26.025 72.464 27.472 69.779 23.547 C 68.23 21.379 68.127 22.514 68.127 37.49 L 68.127 53.703 L 59.865 53.703 L 51.603 53.703 L 51.603 38.006 Z M 70.089 16.318 C 71.329 14.769 71.225 14.459 69.779 14.459 C 68.746 14.459 68.127 15.285 68.127 16.731 C 68.127 17.97 68.23 18.693 68.436 18.486 C 68.54 18.28 69.366 17.248 70.089 16.318 Z M 51.603 16.008 C 51.603 15.182 50.879 14.459 50.053 14.459 C 48.71 14.459 48.607 14.769 49.744 16.008 C 51.397 17.867 51.603 17.867 51.603 16.008 Z" style="fill: rgb(255, 255, 255);"/>
  <path d="M 83.618 26.852 L 83.618 0 L 91.881 0 L 100.142 0 L 99.936 26.646 L 99.626 53.187 L 91.674 53.497 L 83.618 53.808 L 83.618 26.852 Z" style="fill: rgb(255, 255, 255);"/>
  <path d="M 117.699 52.361 C 112.639 50.709 104.997 42.757 103.447 37.593 C 101.589 31.189 101.898 20.552 104.171 15.285 C 106.443 9.915 111.297 4.854 116.77 2.066 C 120.178 0.207 122.863 0 137.838 0 L 154.879 0 L 154.879 7.23 L 154.879 14.459 L 141.04 14.459 C 128.44 14.459 126.995 14.666 123.793 16.835 C 119.765 19.52 117.699 23.031 117.699 27.369 C 117.699 34.701 123.483 39.246 132.778 39.246 C 137.838 39.246 138.045 39.142 137.529 36.664 C 137.116 34.288 136.599 34.082 131.539 34.082 L 125.961 34.082 L 125.961 26.336 L 125.961 18.59 L 140.42 18.59 L 154.879 18.59 L 154.879 36.147 L 154.879 53.703 L 138.148 53.6 C 128.854 53.497 119.662 52.981 117.699 52.361 Z" style="fill: rgb(255, 255, 255);"/>
  <path d="M 163.038 51.536 C 160.972 50.296 158.596 48.024 157.667 46.475 C 154.466 41.207 155.911 31.706 160.456 27.988 C 161.902 26.852 161.799 26.336 159.836 23.65 C 158.287 21.689 157.461 18.693 157.151 14.459 C 156.738 8.365 156.738 8.159 160.869 4.132 L 165 0 L 181.628 0 L 198.255 0 L 198.255 7.23 L 198.255 14.459 L 187.411 14.459 C 178.322 14.459 176.361 14.769 175.844 16.111 C 174.811 18.797 177.6 19.623 188.237 19.623 L 198.255 19.623 L 198.255 27.369 L 198.255 35.114 L 186.792 35.114 C 176.464 35.114 175.431 35.321 175.74 36.973 C 176.05 38.522 178.013 38.728 197.532 39.039 L 218.911 39.246 L 218.911 46.475 L 218.911 53.703 L 192.885 53.703 C 168.305 53.703 166.55 53.497 163.038 51.536 Z" style="fill: rgb(255, 255, 255);"/>
  <path d="M 227.998 44.203 L 227.689 34.598 L 224.384 34.288 L 220.975 33.979 L 220.975 26.232 L 220.975 18.59 L 226.139 18.59 C 230.58 18.59 231.303 18.28 231.303 16.525 C 231.303 14.666 230.58 14.459 225.107 14.459 L 218.911 14.459 L 218.911 25.819 L 218.911 37.18 L 210.132 37.18 L 201.354 37.18 L 201.354 18.59 L 201.354 0 L 219.014 0 C 235.021 0 237.087 0.207 240.495 2.169 C 245.555 5.061 248.034 8.675 248.653 14.046 C 249.274 19.726 248.447 22.824 245.349 26.543 C 243.18 29.125 243.077 29.744 244.317 31.5 C 245.142 32.532 245.762 34.701 245.762 36.354 L 245.762 39.246 L 282.735 39.246 C 325.182 39.246 324.562 39.349 322.187 32.016 C 320.534 27.059 321.361 24.993 325.698 22.927 C 327.867 21.895 329.21 21.792 331.998 22.721 C 337.059 24.374 340.053 29.125 340.57 36.043 C 341.086 43.066 338.401 47.714 331.998 51.329 C 327.867 53.703 327.763 53.703 278.087 53.703 L 228.308 53.703 L 227.998 44.203 Z" style="fill: rgb(255, 255, 255);"/>
  <path d="M 343.978 51.018 C 342.739 49.47 341.809 47.404 341.809 46.269 C 341.809 43.79 346.354 39.246 348.831 39.246 C 352.24 39.246 356.267 43.169 356.267 46.578 C 356.267 53.291 348.005 56.182 343.978 51.018 Z" style="fill: rgb(255, 255, 255);"/>
</svg>
